X:1
T:Branle double
C:Pierre Attaignant, 1547
Z:Bert Van Vreckem <bert.vanvreckem@gmail.com> 2004-12-30
M:2/4
L:1/4
Q:1/2=72-80
K:G
GG | F2 | G2 | A2 | cc | B3/2 A/4G/4 | AA | G2 | GG | FF | G/A/ B/G/ |
w:D\-_ x x J/ D+_ x__ x_ J/ ... *******
A2 | B/c/ d/c/ | B A/G/ | F/E/ F | G2  :||: cc | B B/c/ | d/e/ d | A2 | cc | B B/c/|
d/e/d | A2 | A c | B2 | A2 | E2 | E F | G F/G/ | A/G/ A/4G/4F/4E/4 | E2  :|
|:GG | F2 | G2 | A2 | cc | B3/2 A/4G/4 | AA | G2 | GG | FF | G/A/ B/G/ |
w:D\-_ x x J/ D+_ x__ x_ J/ ... *******
A2 | B/c/ d/c/ | B A/G/ | F/E/ F | G2  :||
